X: 1
T: Regards to Helen Frame
C: David Ross
R: strathspey
Z: 2014 John Chambers <jc:trillian.mit.edu>
S: PDF image of set for Invercauld's Reel, from George Meikle, 2012
M: C
L: 1/8
K: D
A,2 |\
"D"d2 d>B A>F D<F | "Em"E>F E>D B,2 "A7"A,2 |\
"D"D2 D>E "Bm"F>B d>A | "E7"F2 E2 "A7"E2 ||
A,2 |\
"D"D2 "G"d>B "D"A>F D>F | "Em"E>F E>D "Em"B,2 "A7"A,2 |\
"D"D2 d>B A>F D<F | "Gm"E2 D2 "D"D2 |]
FG |\
"D"A2 f>e d>c d<F | "Em"G>F G>F E2 E>F |\
"Em"G2 e>d "A7"c>B A>G | "D"F>D F<B "A7"A2 ||
F>G |\
"D"A2 "F#7"f>e "Bm"d>c d<F | "Em"G>F G>F "E7"E2 E>D |\
"A"C2 e>d "A7"c>A B>c | "D"d2 "G"D2 "D"D2 |]
